X:160
T:Saint John's Eve* (j)
B:NFID.186b ("untitled double jig")
160saint
S:DOD
L:1/8
M:6/8
R:jig
Q:320
K:D
c|: d>ef edB|B>AF FEF|B>AF D>FA|d2f edB|
d>ef e>dB|B>AF FEF|B>AF DEF|1 EDB, DAB/c/:|\
[2 EDB, DBc/B/||
A>FA d2e|f>af f>ed|e>fe edB|d>cd e>dB|
AFA d2e|f>af f>ed|e>dB A>Bd|1 edc dBd/B/:|\
[2 edc dAB/c/||

%%%

